src/img/worflow-create.svg

<svg width="38" height="38" viewBox="0 0 38 38" fill="none" xmlns="http://www.w3.org/2000/svg">
<path d="M28.8486 19.8437L24.7339 15.8798L26.957 10.582C27.1153 10.1977 26.9344 9.75308 26.5501 9.59483C26.3391 9.5044 26.0979 9.51947 25.8945 9.63251L20.9132 12.3605L16.6705 8.55487C16.3615 8.27604 15.8867 8.30618 15.6079 8.61515C15.4572 8.78848 15.3893 9.0221 15.427 9.24817L16.4293 14.9152L11.546 17.8392C11.1918 18.0502 11.0712 18.5174 11.2898 18.8716C11.4104 19.0675 11.6063 19.2032 11.8324 19.2333L14.794 19.6403L3.63326 30.7935C2.78924 31.6375 2.78924 33.0015 3.63326 33.8455C4.47729 34.6895 5.8413 34.6895 6.68532 33.8531C6.68532 33.8531 6.68532 33.8531 6.69286 33.8455L18.0269 22.5039L18.7052 25.6238C18.773 25.9403 19.0367 26.1739 19.3533 26.2116C19.3834 26.2116 19.4135 26.2191 19.4437 26.2191C19.7301 26.2191 20.0013 26.0533 20.1219 25.7896L22.6013 20.6124L28.2532 21.1324C28.6677 21.17 29.037 20.8686 29.0746 20.4541C29.0972 20.2281 29.0143 20.002 28.8486 19.8437ZM5.61522 32.7829C5.359 33.0392 4.95206 33.0392 4.69583 32.7829C4.43961 32.5267 4.43961 32.1198 4.69583 31.8636L8.6296 27.9298L9.54899 28.8492L5.61522 32.7829ZM10.6191 27.7791L9.6997 26.8597L16.6629 19.8965L17.4768 20.0095L17.6426 20.7556L10.6191 27.7791ZM22.2169 19.0675C21.9004 19.0374 21.6065 19.2107 21.4709 19.4895L19.715 23.1595L18.8483 19.173C18.7805 18.864 18.5243 18.6304 18.2153 18.5852L14.161 18.0276L17.6501 15.9401C17.9214 15.7818 18.0571 15.4729 18.0043 15.1639L17.2959 11.1322L20.3179 13.8376C20.559 14.0486 20.9057 14.0938 21.1845 13.9355L24.7415 11.9837L23.1514 15.7668C23.0308 16.0531 23.0986 16.3847 23.3247 16.6033L26.2637 19.4368L22.2169 19.0675Z" fill="#203CA7"/>
<path d="M27.3338 27.1383L25.2313 24.0712C25.0052 23.7246 24.538 23.6266 24.1913 23.8527C23.8447 24.0787 23.7467 24.546 23.9728 24.8926C23.9803 24.9002 23.9879 24.9077 23.9879 24.9228L26.0904 27.9899C26.324 28.3366 26.7912 28.4195 27.1379 28.1858C27.4845 27.9522 27.5674 27.485 27.3338 27.1383Z" fill="#203CA7"/>
<path d="M21.6442 3.52075C21.2297 3.52075 20.8906 3.85987 20.8906 4.27435V7.90668C20.8906 8.32115 21.2297 8.66027 21.6442 8.66027C22.0587 8.66027 22.3978 8.32115 22.3978 7.90668V4.27435C22.3978 3.85987 22.0587 3.52075 21.6442 3.52075Z" fill="#203CA7"/>
<path d="M34.9753 13.2874C34.8698 12.8955 34.4704 12.6544 34.0785 12.7448L29.2329 13.9581C28.826 14.0485 28.5773 14.4555 28.6677 14.8624C28.7581 15.2694 29.1651 15.518 29.572 15.4276C29.5796 15.4276 29.5871 15.4201 29.5946 15.4201L34.4403 14.2068C34.8397 14.1013 35.0808 13.6868 34.9753 13.2874Z" fill="#203CA7"/>
<path d="M11.6968 12.2852L8.10216 11.6823C7.68768 11.6145 7.30335 11.8933 7.24306 12.3078C7.17524 12.7147 7.44653 13.099 7.84594 13.1744L11.4406 13.7773C11.4858 13.7848 11.5235 13.7848 11.5687 13.7848C11.9832 13.7848 12.3223 13.4457 12.3223 13.0312C12.3223 12.662 12.0585 12.353 11.6968 12.2852Z" fill="#203CA7"/>
</svg>

<svg width="38" height="38" fill="none" xmlns="http://www.w3.org/2000/svg"><path d="m28.849 19.844-4.115-3.964 2.223-5.298a.757.757 0 0 0-.407-.987.744.744 0 0 0-.655.038l-4.982 2.728-4.242-3.806a.752.752 0 0 0-1.244.693l1.002 5.667-4.883 2.924a.75.75 0 0 0-.256 1.033c.12.195.316.331.542.361l2.962.407-11.16 11.154a2.156 2.156 0 0 0 0 3.052 2.163 2.163 0 0 0 3.051.007l.008-.008 11.334-11.341.678 3.12c.068.316.332.55.648.588.03 0 .06.007.09.007a.748.748 0 0 0 .679-.43l2.48-5.177 5.651.52a.753.753 0 0 0 .596-1.288ZM5.615 32.783a.646.646 0 0 1-.92 0 .646.646 0 0 1 0-.92L8.63 27.93l.919.92-3.934 3.933Zm5.004-5.004-.92-.92 6.964-6.963.814.113.166.747-7.024 7.023Zm11.598-8.712a.751.751 0 0 0-.746.422l-1.756 3.67-.867-3.986a.763.763 0 0 0-.633-.588l-4.054-.557 3.49-2.088a.746.746 0 0 0 .353-.776l-.708-4.032 3.022 2.706a.753.753 0 0 0 .866.098l3.557-1.952-1.59 3.783a.755.755 0 0 0 .174.836l2.939 2.834-4.047-.37Zm5.117 8.071-2.103-3.067a.753.753 0 0 0-1.04-.218.753.753 0 0 0-.218 1.04c.007.007.015.015.015.03l2.102 3.067a.751.751 0 0 0 1.048.196.752.752 0 0 0 .196-1.048ZM21.644 3.52a.756.756 0 0 0-.753.754v3.633c0 .414.339.753.753.753a.756.756 0 0 0 .754-.753V4.274a.756.756 0 0 0-.754-.753Zm13.331 9.767a.758.758 0 0 0-.897-.542l-4.845 1.213a.754.754 0 1 0 .339 1.47c.008 0 .015-.008.023-.008l4.845-1.213c.4-.106.64-.52.535-.92Zm-23.278-1.002-3.595-.603a.741.741 0 0 0-.859.626.756.756 0 0 0 .603.866l3.595.603c.045.008.082.008.128.008a.756.756 0 0 0 .128-1.5Z" fill="#203CA7"/></svg>
